image/icon/Town.svg

<!--version="1.0" encoding="UTF-8"--><svg version="1.1" id="Layer_1" xmlns="http://www.w3.org/2000/svg" width="33" height="40" xml:space="preserve"><g id="PathID_89" transform="matrix(1, 0, 0, 1, 16.05, 19.9)"><path style="fill: rgb(0, 0, 0); fill-opacity: 1;" d="M3.3-17.85h-.95v1.1L-4.3-5.95l2.9 1.9v1.4l-12.45 6.8v3.2l2.7 2.6v5.8l2.05.05.05-7.6 4.1-2.05.1 10.2L1.8 18l8.8-2.55V5.15l2.05-1.35L7.1.15v-4.2l2.9-1.9-6.7-10.8v-1.1m1.85-2.05v2.55L12.5-5.4 8.9-3v2l7.15 4.75-3.65 2.4V16.9L1.65 20.05-7 17.9l-6.35-.25v-6.9l-2.7-2.55V2.9L-4.3-3.5l-2.95-1.9 7.4-11.95v-2.55h5M2-9.1v3.4H.2v-3.4H2m1.3 0h1.8v3.4H3.3v-3.4M1.95 12.8H-1.5V7.95h3.45v4.85"/><path style="fill: rgb(255, 255, 255); fill-opacity: 1;" d="M3.3-16.75 10-5.95l-2.9 1.9v4.2l5.55 3.65-2.05 1.35v10.3L1.8 18l-6.65-1.65-.1-10.2-4.1 2.05-.05 7.6-2.05-.05v-5.8l-2.7-2.6v-3.2l12.45-6.8v-1.4l-2.9-1.9 6.65-10.8v-1.1h.95v1.1M.2-9.1v3.4H2v-3.4H.2m3.1 3.4h1.8v-3.4H3.3v3.4M1.95 7.95H-1.5v4.85h3.45V7.95"/></g></svg>

<?xml version="1.0" encoding="UTF-8"?>
<svg version="1.1" id="Layer_1" xmlns="http://www.w3.org/2000/svg" xmlns:xlink="http://www.w3.org/1999/xlink" width="33px" height="40px" xml:space="preserve">
<g id="PathID_89" transform="matrix(1, 0, 0, 1, 16.05, 19.9)">
<path style="fill:#000000;fill-opacity:1" d="M3.3 -17.85L2.35 -17.85L2.35 -16.75L-4.3 -5.95L-1.4 -4.05L-1.4 -2.65L-13.85 4.15L-13.85 7.35L-11.15 9.95L-11.15 15.75L-9.1 15.8L-9.05 8.2L-4.95 6.15L-4.85 16.35L1.8 18L10.6 15.45L10.6 5.15L12.65 3.8L7.1 0.15L7.1 -4.05L10 -5.95L3.3 -16.75L3.3 -17.85M5.15 -19.9L5.15 -17.35L12.5 -5.4L8.9 -3L8.9 -1L16.05 3.75L12.4 6.15L12.4 16.9L1.65 20.05L-7 17.9L-13.35 17.65L-13.35 10.75L-16.05 8.2L-16.05 2.9L-4.3 -3.5L-7.25 -5.4L0.15 -17.35L0.15 -19.9L5.15 -19.9M2 -9.1L2 -5.7L0.2 -5.7L0.2 -9.1L2 -9.1M3.3 -9.1L5.1 -9.1L5.1 -5.7L3.3 -5.7L3.3 -9.1M1.95 12.8L-1.5 12.8L-1.5 7.95L1.95 7.95L1.95 12.8"/>
<path style="fill:#FFFFFF;fill-opacity:1" d="M3.3 -16.75L10 -5.95L7.1 -4.05L7.1 0.15L12.65 3.8L10.6 5.15L10.6 15.45L1.8 18L-4.85 16.35L-4.95 6.15L-9.05 8.2L-9.1 15.8L-11.15 15.75L-11.15 9.95L-13.85 7.35L-13.85 4.15L-1.4 -2.65L-1.4 -4.05L-4.3 -5.95L2.35 -16.75L2.35 -17.85L3.3 -17.85L3.3 -16.75M0.2 -9.1L0.2 -5.7L2 -5.7L2 -9.1L0.2 -9.1M3.3 -5.7L5.1 -5.7L5.1 -9.1L3.3 -9.1L3.3 -5.7M1.95 7.95L-1.5 7.95L-1.5 12.8L1.95 12.8L1.95 7.95"/>
</g>
</svg>
